X: 4281
T: Bobbin' John
R: three-two
M: 3/2
K: Adorian
|:e2 c2 A2|B2 c4|e2 c2 A2|c2 B2 d2|
e2 c2 A2|B2 c4|B2 G2 G2|c2 B2 d2:|
|:c2 e2 g2|f2 e4|c2 e2 g2|f2 e2 g2|
a3g f2|e2 d3c|B2 G2 G2|c2 B2 d2:|

